X: 26859
T: Miners
R: hornpipe
M: 4/4
K: Dmajor
A2|dcdA FDFA|BABc dcBA|Bcdc BAGF|Eeed e2 fe|
dcdA FDFA|BABc dcBA|BcdB Agfe|dcdc d2:|:
fg|afdf gecA|dcdB AFDF|GFGA BAGF|Eeed e2 de
(3fff fd ec A2|gfge dcBA|BcdB Agfe|dcdc d2:|

